X:13222
T:Planxty Irwin
R:Other
R:Waltz
O:Ireland
M:6/8
C:Turlough O'Carolan
K:D
A|\
d2c Bcd|A2G FED|G2E FGA|C2D E2c|\
d2c Bcd|A2G FED|G2E FGA|D2C D2::
A|\
d>ed dcd|e>fe ecA|f2f e2d|c>dB ABc|\
d2c  Bcd|A2G  FED|G2E FGA|D2C  D2:|
